ivy-dev/16/pool/preferences.svg

<?xml version="1.0" encoding="UTF-8" standalone="no"?>
<!-- Created with Inkscape (http://www.inkscape.org/) -->

<svg
   xmlns:dc="http://purl.org/dc/elements/1.1/"
   xmlns:cc="http://creativecommons.org/ns#"
   xmlns:rdf="http://www.w3.org/1999/02/22-rdf-syntax-ns#"
   xmlns:svg="http://www.w3.org/2000/svg"
   xmlns="http://www.w3.org/2000/svg"
   xmlns:xlink="http://www.w3.org/1999/xlink"
   xmlns:sodipodi="http://sodipodi.sourceforge.net/DTD/sodipodi-0.dtd"
   xmlns:inkscape="http://www.inkscape.org/namespaces/inkscape"
   version="1.1"
   width="16"
   height="16"
   id="svg11300"
   inkscape:version="0.49+devel r"
   sodipodi:docname="preferences-system.svg">
  <sodipodi:namedview
     pagecolor="#ffffff"
     bordercolor="#666666"
     borderopacity="1"
     objecttolerance="10"
     gridtolerance="10"
     guidetolerance="10"
     inkscape:pageopacity="0"
     inkscape:pageshadow="2"
     inkscape:window-width="739"
     inkscape:window-height="480"
     id="namedview19"
     showgrid="false"
     inkscape:zoom="14.75"
     inkscape:cx="10.880276"
     inkscape:cy="8"
     inkscape:window-x="32"
     inkscape:window-y="0"
     inkscape:window-maximized="0"
     inkscape:current-layer="svg11300" />
  <defs
     id="defs3">
    <linearGradient
       id="linearGradient895">
      <stop
         id="stop897"
         style="stop-color:#ebebeb;stop-opacity:1"
         offset="0" />
      <stop
         id="stop899"
         style="stop-color:#b8b8b8;stop-opacity:1"
         offset="1" />
    </linearGradient>
    <linearGradient
       id="linearGradient863">
      <stop
         id="stop865"
         style="stop-color:#ebebeb;stop-opacity:1"
         offset="0" />
      <stop
         id="stop867"
         style="stop-color:#d7d7d7;stop-opacity:1"
         offset="1" />
    </linearGradient>
    <radialGradient
       cx="34"
       cy="9.3302202"
       r="12.159018"
       fx="34"
       fy="9.3302202"
       id="radialGradient3010"
       xlink:href="#linearGradient895"
       gradientUnits="userSpaceOnUse"
       gradientTransform="matrix(0.62119572,-0.62119584,0.42625945,0.42625939,-14.726026,18.78474)" />
    <linearGradient
       x1="40"
       y1="40"
       x2="26"
       y2="15"
       id="linearGradient3012"
       xlink:href="#linearGradient863"
       gradientUnits="userSpaceOnUse"
       gradientTransform="matrix(0.46516577,0,0,0.46516577,-3.0214977,-2.5205774)" />
  </defs>
  <metadata
     id="metadata4">
    <rdf:RDF>
      <cc:Work>
        <dc:format>image/svg+xml</dc:format>
        <dc:type
           rdf:resource="http://purl.org/dc/dcmitype/StillImage" />
        <dc:creator>
          <cc:Agent>
            <dc:title>Jakub Steiner</dc:title>
          </cc:Agent>
        </dc:creator>
        <dc:source>http://jimmac.musichall.cz</dc:source>
        <cc:license
           rdf:resource="http://creativecommons.org/licenses/publicdomain/" />
        <dc:title />
        <dc:subject>
          <rdf:Bag>
            <rdf:li>preferences</rdf:li>
            <rdf:li>settings</rdf:li>
            <rdf:li>control panel</rdf:li>
            <rdf:li>tweaks</rdf:li>
            <rdf:li>system</rdf:li>
          </rdf:Bag>
        </dc:subject>
      </cc:Work>
      <cc:License
         rdf:about="http://creativecommons.org/licenses/publicdomain/">
        <cc:permits
           rdf:resource="http://creativecommons.org/ns#Reproduction" />
        <cc:permits
           rdf:resource="http://creativecommons.org/ns#Distribution" />
        <cc:permits
           rdf:resource="http://creativecommons.org/ns#DerivativeWorks" />
      </cc:License>
    </rdf:RDF>
  </metadata>
  <path
     d="m 5.3081,7.3482 6.9827,7.3051 c 0.357474,0.408543 1.49016,0.724291 2.24698,0 0.730833,-0.699428 0.561744,-1.68523 -0.153204,-2.40018 l -6.6252,-7.3562 C 8.805996,1.98963 6.687686,-0.45229 3.954836,0.07103 l -0.5873,0.5362 1.6325,1.8927 V 3.9999 l -1,1 -1.7049,-0.052 -1.6852,-1.5831 -0.5908,0.5837 c -0.274803,2.62415 2.13503,5.32095 5.28904,3.39954 z"
     inkscape:connector-curvature="0"
     id="path2140"
     style="color:#000000;fill:url(#linearGradient3012);fill-opacity:1;fill-rule:nonzero;stroke:none;stroke-width:0.9999997;marker:none;visibility:visible;display:inline;overflow:visible" />
  <path
     d="m 4.1562,0.5938 c -9.588e-4,0.226411 0.32237,0.413184 0.448424,0.62407 0.292031,0.380106 0.670763,0.704899 0.902816,1.12366 0.048074,0.583146 0.022539,1.17817 0.01291,1.76404 -0.158135,0.40817 -0.576987,0.645928 -0.851948,0.976028 -0.225208,0.253043 -0.499169,0.534906 -0.873364,0.443388 -0.565541,-0.038059 -1.1414,-0.00576 -1.70027,-0.089798 -0.487541,-0.335487 -0.874423,-0.8098 -1.32176,-1.20055 -0.400268,-0.335463 -0.0968343,0.875164 -0.050429,1.11731 0.289398,1.25081 1.51068,2.33164 2.84239,2.09373 0.676387,-0.00512 1.18369,-0.593145 1.82456,-0.636514 0.415505,0.137189 0.638756,0.571944 0.963886,0.845185 2.26775,2.33383 4.1105497,4.3221799 6.3790597,6.6552599 0.615194,0.554202 1.77882,0.157726 1.78614,-0.709788 -0.04545,-0.771906 -0.766631,-1.21765 -1.21018,-1.7759 -2.14018,-2.3248699 -3.8682297,-4.2933799 -6.0011497,-6.6243099 -0.265563,-0.495588 0.235783,-1.00936 0.179448,-1.53298 0.17307,-1.35883 -0.740897,-2.80602 -2.12425,-3.05333 -0.395965,-0.0845766 -0.807459,-0.0845154 -1.20628,-0.0195153 z"
     inkscape:connector-curvature="0"
     id="path3792"
     style="opacity:0.5;color:#000000;fill:none;stroke:#000000;stroke-width:0.9999997;marker:none;visibility:visible;display:inline;overflow:visible" />
  <path
     d="m 4.046,13.4482 c 0.484297,-0.41511 7.47122,-7.47122 7.47122,-7.47122 l 1.6762,-0.003 2.8066,-3.8909 -2.3382,-2.083 -3.6358,3.1255 -0.003,1.3572 -7.4712,7.4712 C 2.201,12.3048 3.59957,13.83094 4.04606,13.44822 z"
     inkscape:connector-curvature="0"
     id="path2144"
     style="color:#000000;fill:url(#radialGradient3010);fill-opacity:1;fill-rule:nonzero;stroke:none;stroke-width:0.9999997;marker:none;visibility:visible;display:inline;overflow:visible" />
  <path
     d="m 13.625,0.6562 -3.0938,2.6875 0,1.125 a 0.500672,0.500672 0 0 1 -0.15625,0.34375 l -7.3438,7.375 c 0.05174,0.110252 0.196544,0.283685 0.34375,0.4375 0.147206,0.153815 0.300314,0.291163 0.40625,0.34375 0.021187,0.01052 0.018153,-0.0044 0.03125,0 0.108558,-0.101233 0.576335,-0.550814 1.25,-1.21875 0.724822,-0.718658 1.6243,-1.65513 2.53125,-2.5625 1.8139,-1.81473 3.59375,-3.5625 3.59375,-3.5625 A 0.500672,0.500672 0 0 1 11.53115,5.4687 H 12.9374 L 15.3436,2.1875 13.6248,0.6563 z"
     inkscape:connector-curvature="0"
     id="path3788"
     style="opacity:0.5;color:#000000;fill:none;stroke:#000000;stroke-width:0.9999997;marker:none;visibility:visible;display:inline;overflow:visible" />
  <path
     d="m 1.5436,15.4265 c 0.676125,0.758716 2.5542,1.10199 3.38705,-0.367605 0.36313,-0.640762 1.07533,-2.43518 4.25272,-5.31862 0.533646,-0.483728 1.09894,-1.59028 0.619717,-2.18718 l -1.2403,-1.2506 C 8.05538,5.73402 6.645007,5.999186 6.066367,6.794873 c -1.72487,2.37998 -4.54284,4.2745 -5.17832,4.50334 -1.21603,0.437908 -1.07917,2.24532 -0.274655,3.10507 l 0.9302,1.0233 z"
     inkscape:connector-curvature="0"
     id="path2142"
     style="color:#000000;fill:#5288d1;fill-opacity:1;fill-rule:nonzero;stroke:none;stroke-width:0.9999997;marker:none;visibility:visible;display:inline;overflow:visible" />
  <path
     d="M 7.4375,6.5312 C 7.056102,6.6051547 6.652411,6.841148 6.46875,7.0937 5.566283,8.33893 4.40277,9.42235 3.375,10.24995 2.861113,10.663749 2.397581,11.020989 2,11.2812 1.60242,11.541411 1.323716,11.718383 1.0625,11.81245 0.673817,11.95242 0.508469,12.250667 0.5,12.7187 c -0.008469,0.468033 0.208915,1.03268 0.5,1.34375 l 0.9062,1.0312 c 0.203178,0.227997 0.732099,0.47257 1.25,0.46875 0.517901,-0.0038 1.01889,-0.176758 1.34375,-0.75 0.150989,-0.266428 0.450452,-0.953951 1.09375,-1.875 0.643298,-0.921049 1.63604,-2.09786 3.25,-3.5625 0.189205,-0.171506 0.446364,-0.52374 0.5625,-0.84375 0.110606,-0.304771 0.069754,-0.520705 0,-0.625 V 7.8749 L 8.1874,6.6874 a 0.518172,0.518172 0 0 1 0,-0.03125 c -0.075869,-0.085 -0.384878,-0.195799 -0.75,-0.125 z"
     inkscape:connector-curvature="0"
     id="path3796"
     style="opacity:0.6;color:#000000;fill:none;stroke:#000000;stroke-width:0.9999997;marker:none;visibility:visible;display:inline;overflow:visible" />
</svg>

<?xml version="1.0" encoding="UTF-8" standalone="no"?>
<!-- Created with Inkscape (http://www.inkscape.org/) -->

<svg
   xmlns:dc="http://purl.org/dc/elements/1.1/"
   xmlns:cc="http://creativecommons.org/ns#"
   xmlns:rdf="http://www.w3.org/1999/02/22-rdf-syntax-ns#"
   xmlns:svg="http://www.w3.org/2000/svg"
   xmlns="http://www.w3.org/2000/svg"
   xmlns:xlink="http://www.w3.org/1999/xlink"
   xmlns:inkscape="http://www.inkscape.org/namespaces/inkscape"
   version="1.1"
   width="16"
   height="16"
   id="svg11300">
  <defs
     id="defs3">
    <linearGradient
       id="linearGradient895">
      <stop
         id="stop897"
         style="stop-color:#ebebeb;stop-opacity:1"
         offset="0" />
      <stop
         id="stop899"
         style="stop-color:#b8b8b8;stop-opacity:1"
         offset="1" />
    </linearGradient>
    <linearGradient
       id="linearGradient863">
      <stop
         id="stop865"
         style="stop-color:#ebebeb;stop-opacity:1"
         offset="0" />
      <stop
         id="stop867"
         style="stop-color:#d7d7d7;stop-opacity:1"
         offset="1" />
    </linearGradient>
    <radialGradient
       cx="34"
       cy="9.3302202"
       r="12.159018"
       fx="34"
       fy="9.3302202"
       id="radialGradient3010"
       xlink:href="#linearGradient895"
       gradientUnits="userSpaceOnUse"
       gradientTransform="matrix(0.62119572,-0.62119584,0.42625945,0.42625939,-14.726026,18.78474)" />
    <linearGradient
       x1="40"
       y1="40"
       x2="26"
       y2="15"
       id="linearGradient3012"
       xlink:href="#linearGradient863"
       gradientUnits="userSpaceOnUse"
       gradientTransform="matrix(0.46516577,0,0,0.46516577,-3.0214977,-2.5205774)" />
  </defs>
  <metadata
     id="metadata4">
    <rdf:RDF>
      <cc:Work>
        <dc:format>image/svg+xml</dc:format>
        <dc:type
           rdf:resource="http://purl.org/dc/dcmitype/StillImage" />
        <dc:creator>
          <cc:Agent>
            <dc:title>Jakub Steiner</dc:title>
          </cc:Agent>
        </dc:creator>
        <dc:source>http://jimmac.musichall.cz</dc:source>
        <cc:license
           rdf:resource="http://creativecommons.org/licenses/publicdomain/" />
        <dc:title />
        <dc:subject>
          <rdf:Bag>
            <rdf:li>preferences</rdf:li>
            <rdf:li>settings</rdf:li>
            <rdf:li>control panel</rdf:li>
            <rdf:li>tweaks</rdf:li>
            <rdf:li>system</rdf:li>
          </rdf:Bag>
        </dc:subject>
      </cc:Work>
      <cc:License
         rdf:about="http://creativecommons.org/licenses/publicdomain/">
        <cc:permits
           rdf:resource="http://creativecommons.org/ns#Reproduction" />
        <cc:permits
           rdf:resource="http://creativecommons.org/ns#Distribution" />
        <cc:permits
           rdf:resource="http://creativecommons.org/ns#DerivativeWorks" />
      </cc:License>
    </rdf:RDF>
  </metadata>
  <path
     d="m 5.3081,7.3482 6.9827,7.3051 c 0.357474,0.408543 1.49016,0.724291 2.24698,0 0.730833,-0.699428 0.561744,-1.68523 -0.153204,-2.40018 l -6.6252,-7.3562 C 8.805996,1.98963 6.687686,-0.45229 3.954836,0.07103 l -0.5873,0.5362 1.6325,1.8927 V 3.9999 l -1,1 -1.7049,-0.052 -1.6852,-1.5831 -0.5908,0.5837 c -0.274803,2.62415 2.13503,5.32095 5.28904,3.39954 z"
     inkscape:connector-curvature="0"
     id="path2140"
     style="color:#000000;fill:url(#linearGradient3012);fill-opacity:1;fill-rule:nonzero;stroke:none;stroke-width:0.9999997;marker:none;visibility:visible;display:inline;overflow:visible" />
  <path
     d="M 4.1562,0.5938 C 4.1552412,0.820211 4.47857,1.006984 4.604624,1.21787 4.896655,1.597976 5.275387,1.922769 5.50744,2.34153 5.555514,2.924676 5.529979,3.5197 5.52035,4.10557 5.362215,4.51374 4.943363,4.751498 4.668402,5.081598 4.443194,5.334641 4.169233,5.616504 3.795038,5.524986 3.229497,5.486927 2.653638,5.519226 2.094768,5.435188 1.607227,5.099701 1.220345,4.625388 0.773008,4.234638 0.37274,3.899175 0.6761737,5.109802 0.722579,5.351948 c 0.289398,1.25081 1.51068,2.33164 2.84239,2.09373 0.676387,-0.00512 1.18369,-0.593145 1.82456,-0.636514 0.415505,0.137189 0.638756,0.571944 0.963886,0.845185 2.26775,2.33383 4.11055,4.32218 6.37906,6.65526 0.615194,0.554202 1.77882,0.157726 1.78614,-0.709788 -0.04545,-0.771906 -0.766631,-1.21765 -1.21018,-1.7759 -2.14018,-2.32487 -3.86823,-4.29338 -6.00115,-6.62431 C 7.041722,4.704023 7.543068,4.190251 7.486733,3.666631 7.659803,2.307801 6.745836,0.860611 5.362483,0.613301 4.966518,0.5287244 4.555024,0.5287856 4.156203,0.5937857 z"
     inkscape:connector-curvature="0"
     id="path3792"
     style="opacity:0.5;color:#000000;fill:none;stroke:#000000;stroke-width:0.9999997;marker:none;visibility:visible;display:inline;overflow:visible" />
  <path
     d="m 4.046,13.4482 c 0.484297,-0.41511 7.47122,-7.47122 7.47122,-7.47122 l 1.6762,-0.003 2.8066,-3.8909 -2.3382,-2.083 -3.6358,3.1255 -0.003,1.3572 -7.4712,7.4712 C 2.201,12.3048 3.59957,13.83094 4.04606,13.44822 z"
     inkscape:connector-curvature="0"
     id="path2144"
     style="color:#000000;fill:url(#radialGradient3010);fill-opacity:1;fill-rule:nonzero;stroke:none;stroke-width:0.9999997;marker:none;visibility:visible;display:inline;overflow:visible" />
  <path
     d="m 13.625,0.6562 -3.0938,2.6875 0,1.125 a 0.500672,0.500672 0 0 1 -0.15625,0.34375 l -7.3438,7.375 c 0.05174,0.110252 0.196544,0.283685 0.34375,0.4375 0.147206,0.153815 0.300314,0.291163 0.40625,0.34375 0.021187,0.01052 0.018153,-0.0044 0.03125,0 0.108558,-0.101233 0.576335,-0.550814 1.25,-1.21875 0.724822,-0.718658 1.6243,-1.65513 2.53125,-2.5625 1.8139,-1.81473 3.59375,-3.5625 3.59375,-3.5625 A 0.500672,0.500672 0 0 1 11.53115,5.4687 H 12.9374 L 15.3436,2.1875 13.6248,0.6563 z"
     inkscape:connector-curvature="0"
     id="path3788"
     style="opacity:0.5;color:#000000;fill:none;stroke:#000000;stroke-width:0.9999997;marker:none;visibility:visible;display:inline;overflow:visible" />
  <path
     d="m 1.5436,15.4265 c 0.676125,0.758716 2.5542,1.10199 3.38705,-0.367605 0.36313,-0.640762 1.07533,-2.43518 4.25272,-5.31862 0.533646,-0.483728 1.09894,-1.59028 0.619717,-2.18718 l -1.2403,-1.2506 C 8.05538,5.73402 6.645007,5.999186 6.066367,6.794873 c -1.72487,2.37998 -4.54284,4.2745 -5.17832,4.50334 -1.21603,0.437908 -1.07917,2.24532 -0.274655,3.10507 l 0.9302,1.0233 z"
     inkscape:connector-curvature="0"
     id="path2142"
     style="color:#000000;fill:#5288d1;fill-opacity:1;fill-rule:nonzero;stroke:none;stroke-width:0.9999997;marker:none;visibility:visible;display:inline;overflow:visible" />
  <path
     d="M 7.4375,6.5312 C 7.056102,6.6051547 6.652411,6.841148 6.46875,7.0937 5.566283,8.33893 4.40277,9.42235 3.375,10.24995 2.861113,10.663749 2.397581,11.020989 2,11.2812 1.60242,11.541411 1.323716,11.718383 1.0625,11.81245 0.673817,11.95242 0.508469,12.250667 0.5,12.7187 0.491531,13.186733 0.708915,13.75138 1,14.06245 l 0.9062,1.0312 c 0.203178,0.227997 0.732099,0.47257 1.25,0.46875 0.517901,-0.0038 1.01889,-0.176758 1.34375,-0.75 0.150989,-0.266428 0.450452,-0.953951 1.09375,-1.875 0.643298,-0.921049 1.63604,-2.09786 3.25,-3.5625 0.189205,-0.171506 0.446364,-0.52374 0.5625,-0.84375 0.110606,-0.304771 0.069754,-0.520705 0,-0.625 V 7.8749 L 8.1874,6.6874 a 0.518172,0.518172 0 0 1 0,-0.03125 c -0.075869,-0.085 -0.384878,-0.195799 -0.75,-0.125 z"
     inkscape:connector-curvature="0"
     id="path3796"
     style="opacity:0.6;color:#000000;fill:none;stroke:#000000;stroke-width:0.9999997;marker:none;visibility:visible;display:inline;overflow:visible" />
</svg>
